X: 33
T: Fortuna desperata (\`a 4)
N: Derived from Ano3089-Fortuna_desperata--a_4.krn
C: Anonymous
%%abc-version 2.0
%%abcx-abcm2ps-target-version 5.9.1 (29 Sep 2008)
%%abc-creator hum2abc beta
%%abcx-conversion-date 2019/02/16 20:18:27
%%abc-edited-by Jesse Rodin
%%abc-edited-by Chris Gage 04-24-2015
%%abcx-initial-encoding-date 2016/02/15/
%%humdrum-veritas 2749320441
%%humdrum-veritas-data 40604504
%%linebreak <none>
%%barnumbers 0
L: 1/4
M: 2/1
Q: 1/2=120
%%staves [1 2 3 4]
V: 1 clef=treble
V: 2 clef=treble-8
V: 3 clef=treble-8
V: 4 clef=treble-8
K: F
[V:1] F8 | 
[V:2] c8 | 
[V:3] F8 | 
[V:4] F8 | 
[V:1] F4E4 | 
[V:2] B4c4- | 
[V:3] F4G4 | 
[V:4] D4C4 | 
[V:1] C8 | 
[V:2] c4f4- | 
[V:3] A8 | 
[V:4] F8 | 
[V:1] z4G4 | 
[V:2] f2ede4 | 
[V:3] G8 | 
[V:4] C8 | 
[V:1] A8 | 
[V:2] f6ed | 
[V:3] F8 | 
[V:4] c8 | 
[V:1] A4A4 | 
[V:2] c3BA2G2 | 
[V:3] z4c4 | 
[V:4] A3GF2E2 | 
[V:1] A8 | 
[V:2] F8 | 
[V:3] d4d4 | 
[V:4] D8 | 
[V:1] G8 | 
[V:2] G8 | 
[V:3] B4c4 | 
[V:4] E8 | 
[V:1] F8- | 
[V:2] A8 | 
[V:3] d8 | 
[V:4] D8- | 
[V:1] F4D4 | 
[V:2] F4G4 | 
[V:3] d4B4 | 
[V:4] D4G4 | 
[V:1] D8 | 
[V:2] z4g4 | 
[V:3] B8 | 
[V:4] G8 | 
[V:1] E4D4 | 
[V:2] e4z2d2- | 
[V:3] c4B4 | 
[V:4] C4G4 | 
[V:1] F4F4- | 
[V:2] d2c4=B2 | 
[V:3] A4F4 | 
[V:4] F4D4 | 
[V:1] F4E4 | 
[V:2] c6B2 | 
[V:3] G8 | 
[V:4] C8 | 
[V:1] F8 | 
[V:2] A8 | 
[V:3] F8- | 
[V:4] c6Bc | 
[V:1] z8 | 
[V:2] f6ed | 
[V:3] F8- | 
[V:4] d4c4 | 
[V:1] c8 | 
[V:2] c4f4- | 
[V:3] F8 | 
[V:4] A8 | 
[V:1] c4A4 | 
[V:2] f2e2f4 | 
[V:3] z8 | 
[V:4] F8 | 
[V:1] =B8 | 
[V:2] d2g4f2 | 
[V:3] z8 | 
[V:4] G8 | 
[V:1] d4c4 | 
[V:2] d4e4 | 
[V:3] z8 | 
[V:4] B4A4 | 
[V:1] A8 | 
[V:2] z4c4 | 
[V:3] f8 | 
[V:4] F8- | 
[V:1] z4A4 | 
[V:2] A6B2 | 
[V:3] f4d4 | 
[V:4] F8 | 
[V:1] G6F2 | 
[V:2] c6BA | 
[V:3] e8 | 
[V:4] C8 | 
[V:1] E4E4 | 
[V:2] G4G4 | 
[V:3] g4f2e2 | 
[V:4] C4C4 | 
[V:1] F8 | 
[V:2] F2G2A4 | 
[V:3] d8 | 
[V:4] D8 | 
[V:1] G4A4 | 
[V:2] B2c2d4 | 
[V:3] e4f4 | 
[V:4] G4F4 | 
[V:1] B8- | 
[V:2] _e8- | 
[V:3] g8- | 
[V:4] _E8- | 
[V:1] B4A4 | 
[V:2] e4c4 | 
[V:3] g4f4 | 
[V:4] E4F4 | 
[V:1] A4F4 | 
[V:2] c8 | 
[V:3] f4e2d2 | 
[V:4] F8 | 
[V:1] G8 | 
[V:2] z8 | 
[V:3] e8 | 
[V:4] c8 | 
[V:1] A6=B2 | 
[V:2] c4d4 | 
[V:3] f8 | 
[V:4] F6G2 | 
[V:1] c4c4 | 
[V:2] c4A4 | 
[V:3] z4f4 | 
[V:4] A4F4 | 
[V:1] d4c2=B2- | 
[V:2] d4A2=B2- | 
[V:3] f4e2d2- | 
[V:4] B4c2G2- | 
[V:1] B2A2A4- | 
[V:2] B2c2d4 | 
[V:3] d2c2A4 | 
[V:4] G2A2F4 | 
[V:1] A4^G4 | 
[V:2] e8 | 
[V:3] =B8 | 
[V:4] E8 | 
[V:1] A8 | 
[V:2] c4d4 | 
[V:3] A8 | 
[V:4] F4D4 | 
[V:1] z8 | 
[V:2] e8 | 
[V:3] c8 | 
[V:4] A2G2F2E2 | 
[V:1] A6GF | 
[V:2] f8 | 
[V:3] d8 | 
[V:4] D8 | 
[V:1] E8 | 
[V:2] a6gf | 
[V:3] c8 | 
[V:4] A8- | 
[V:1] C8 | 
[V:2] e4c4- | 
[V:3] e8 | 
[V:4] A8 | 
[V:1] z4C4 | 
[V:2] c2BAG4 | 
[V:3] z4e4 | 
[V:4] A2G2E4 | 
[V:1] D4F4 | 
[V:2] A8- | 
[V:3] f4d4 | 
[V:4] D8 | 
[V:1] E8 | 
[V:2] A4z4 | 
[V:3] c8 | 
[V:4] z4A4 | 
[V:1] F4G4- | 
[V:2] B4c4- | 
[V:3] d4e4- | 
[V:4] D4C4- | 
[V:1] G2F2E2D2 | 
[V:2] c4f3g | 
[V:3] e2d2c2B2 | 
[V:4] C4D4 | 
[V:1] E8 | 
[V:2] a8 | 
[V:3] c8 | 
[V:4] A8 | 
[V:1] D4F4- | 
[V:2] z4a4 | 
[V:3] d8 | 
[V:4] D8- | 
[V:1] F2E2D2C2 | 
[V:2] f6g2 | 
[V:3] d3cB4 | 
[V:4] D8 | 
[V:1] C8 | 
[V:2] a8 | 
[V:3] A8 | 
[V:4] F8 | 
[V:1] D8 | 
[V:2] f6ed | 
[V:3] B8 | 
[V:4] B,8 | 
[V:1] E8 | 
[V:2] c4z4 | 
[V:3] G8 | 
[V:4] C8 | 
[V:1] z4F4 | 
[V:2] c4d4 | 
[V:3] A8 | 
[V:4] F4D4 | 
[V:1] G4A4 | 
[V:2] e4f4 | 
[V:3] B4A4 | 
[V:4] G4F4 | 
[V:1] B6A2 | 
[V:2] B8 | 
[V:3] d6c2 | 
[V:4] G6A2 | 
[V:1] G4F4 | 
[V:2] z4c4- | 
[V:3] B4A4 | 
[V:4] E4F4 | 
[V:1] E6D2 | 
[V:2] c4c4 | 
[V:3] G8 | 
[V:4] C8 | 
[V:1] F8 |]  
[V:2] [A8c8] |]  
[V:3] F8 |]  
[V:4] c8 |]  



